svg/material-icons/precision_manufacturing/materialiconssharp/20px.svg

<svg xmlns="http://www.w3.org/2000/svg" width="20" height="20" viewBox="0 0 20 20"><path d="M12.89 8.9 11 7.01v-.02l1.89-1.89 2.85 1.33.42-.91-3.49-1.62L11 5.57V5h-1v1.5H7.93C7.71 5.64 6.93 5 6 5c-1.1 0-2 .9-2 2 0 .82.5 1.53 1.21 1.84L6.5 14H5v2h8v-2h-2.14l-3.3-5.77c.17-.21.3-.46.37-.73H10V9h1v-.57l1.67 1.67 3.49-1.63-.42-.91-2.85 1.34zM6 8c-.55 0-1-.45-1-1s.45-1 1-1 1 .45 1 1-.45 1-1 1z"/></svg>

<svg xmlns="http://www.w3.org/2000/svg" enable-background="new 0 0 20 20" height="20" viewBox="0 0 20 20" width="20"><g><rect fill="none" height="20" width="20"/></g><g><path d="M12.89,8.9L11,7.01V6.99l1.89-1.89l2.85,1.33l0.42-0.91L12.67,3.9L11,5.57V5h-1v1.5H7.93C7.71,5.64,6.93,5,6,5 C4.9,5,4,5.9,4,7c0,0.82,0.5,1.53,1.21,1.84L6.5,14H5v2h8v-2h-2.14L7.56,8.23C7.73,8.02,7.86,7.77,7.93,7.5H10V9h1V8.43l1.67,1.67 l3.49-1.63l-0.42-0.91L12.89,8.9z M6,8C5.45,8,5,7.55,5,7c0-0.55,0.45-1,1-1s1,0.45,1,1C7,7.55,6.55,8,6,8z"/></g></svg>
